Sources/FrostedUI/Resources/Icons.xcassets/thumbDown32.imageset/thumb-down-32.svg

<svg width="32" height="32" viewBox="0 0 32 32" fill="none" xmlns="http://www.w3.org/2000/svg" data-fui-icon="true">
  <path
    d="M15.4814 29.083C17.5757 29.0829 19.1867 27.2137 18.8633 25.1396L18.2305 21.083H24.3457C27.2536 21.0828 29.4795 18.4929 29.042 15.6182L27.9258 8.28516C27.5726 5.96471 25.5767 4.25012 23.2295 4.25H5C3.84969 4.25018 2.91719 5.18266 2.91699 6.33301V16.333C2.91699 17.4835 3.84957 18.4158 5 18.416H8.71484L13.6279 27.9541C13.9856 28.6484 14.7026 29.0829 15.4814 29.083ZM5 16.916C4.67798 16.9158 4.41699 16.6551 4.41699 16.333V6.33301C4.41719 6.01111 4.6781 5.75018 5 5.75H8.25V16.916H5ZM15.4814 27.583C15.2619 27.5829 15.0613 27.4596 14.9619 27.2666L9.75 17.1504V5.75H23.2295C24.8354 5.75012 26.2007 6.92317 26.4424 8.51074L27.5586 15.8438C27.8579 17.8106 26.3353 19.5828 24.3457 19.583H17.3555C17.1365 19.583 16.9276 19.6795 16.7852 19.8457C16.643 20.0119 16.5807 20.2321 16.6143 20.4482L17.3818 25.3711C17.5626 26.5308 16.66 27.5829 15.4814 27.583Z"
    fill="currentColor"
  />
</svg>

<svg xmlns="http://www.w3.org/2000/svg" width="32" height="32" fill="none" data-fui-icon="true" viewBox="0 0 32 32"><path fill="currentColor" d="M15.481 29.083a3.42 3.42 0 0 0 3.382-3.943l-.633-4.057h6.116a4.75 4.75 0 0 0 4.696-5.465l-1.116-7.333A4.75 4.75 0 0 0 23.23 4.25H5c-1.15 0-2.083.933-2.083 2.083v10c0 1.15.933 2.083 2.083 2.083h3.715l4.913 9.538a2.09 2.09 0 0 0 1.853 1.129M5 16.916a.583.583 0 0 1-.583-.583v-10c0-.322.261-.583.583-.583h3.25v11.166zm10.481 10.667a.59.59 0 0 1-.52-.316L9.75 17.15V5.75h13.48a3.25 3.25 0 0 1 3.212 2.76l1.117 7.334a3.25 3.25 0 0 1-3.213 3.739h-6.99a.752.752 0 0 0-.742.865l.768 4.923a1.92 1.92 0 0 1-1.9 2.212"/></svg>
